X: 1
T: One You Left Behind, The
M: 4/4
L: 1/8
R: reel
K: Emin
|: GA |B2 ed B2 G2| A2AB DEGB | A3B E2DE | E6 :|
ed | B2ed A2ed | GFGB A2GA | B3E EFGF | D6 GA |
B2EF G2GA | B2ed B2GA | B3E E2DG | E8|
